X:8
T: Rózsa Sándor bujdosik
O: Kistelek (Csongrád), Sinka István (43), 1952.05
M: 4/4
L: 1/4
Q: "Parlandó" 1/4=70
K: F
A/A/d/d/ d/c/_B/B/ | A _B (c2{/e}) | 
He/c/c/c/ d/A/A/HG/ | A<F F z | 
HA/B/A/G/ A/F/F/D/ | GG(A2{/d}) | 
Hd/A/A/G/ A/F/F/HE/ | F<D D z | 

